src/pos-icons/checkbook.svg

<svg height="24" viewBox="0 0 24 24" width="24" xmlns="http://www.w3.org/2000/svg"><path d="m5 14h14v1h-14zm16 3v-9h-18v9zm-20-12h22v14h-22zm4 5h7v2h-7z"/></svg>

<?xml version="1.0" encoding="UTF-8"?><!DOCTYPE svg PUBLIC "-//W3C//DTD SVG 1.1//EN" "http://www.w3.org/Graphics/SVG/1.1/DTD/svg11.dtd"><svg xmlns="http://www.w3.org/2000/svg" xmlns:xlink="http://www.w3.org/1999/xlink" version="1.1" id="mdi-checkbook" width="24" height="24" viewBox="0 0 24 24"><path d="M5,14H19V15H5V14M21,17V8H3V17H21M1,5H23V19H1V5M5,10H12V12H5V10Z" /></svg>
